X: 93
T: 88B. BLACKBIRD
B: Sam Bayard, "Hill Country Tunes" 1944 #88B
N: Played by Emery Martin, (near) Dunbar, PA, Oct 14, 1943. Learned from his father.
R: slow march
M: C|
L: 1/8
Z: 2010 John Chambers <jc:trillian.mit.edu>
P: Slow and Stately
K: G
A | [B4D4] {^/c}BAG2 | [A4D4] [AD]B^c2 | d2d2 ((3B^cB) A2 | G4 F2G2 | [A2D2][A2D2] [B2D2]G2 |
F2D2 E2C2 | B,4 G,3A, | G,6 z2 | G,3A, B,2C2 | D2D2 {A}B2G2 |
F3G AGF2 | G6- G2 | G,3A, B,2C2 | [D2G,2][D2G,2] [E2G,2]C | B4 G,3A, | G,6 z2 |]

%%sep 2 1 500
%%sep 1 1 500

